client/public/img/game/winter/buildings/porta_potty_ceiling.svg

<?xml version="1.0" encoding="UTF-8" standalone="no"?>
<svg
   height="386"
   viewBox="0 0 83.017964 102.12916"
   width="313.76868"
   version="1.1"
   id="svg16"
   xmlns="http://www.w3.org/2000/svg"
   xmlns:svg="http://www.w3.org/2000/svg">
  <defs
     id="defs20" />
  <g
     id="g1"
     transform="matrix(0.94570261,0,0,0.94570261,0.02006661,-0.0203862)">
    <path
       d="M 1.3050963,106.68815 V 1.3478617 H 86.436889 V 106.68815 Z M 18.558143,28.306334 c 5.544449,0 10.039108,-4.313078 10.039108,-10.039252 0,-5.726161 -4.494659,-10.0387474 -10.039108,-10.0387474 -5.544459,0 -10.0391382,4.3125864 -10.0391382,10.0387474 0,5.726174 4.4946792,10.039252 10.0391382,10.039252 z"
       fill="#e7e7e7"
       stroke="#c2c2c2"
       stroke-width="2.65261"
       id="path8-6"
       style="mix-blend-mode:normal;fill-rule:nonzero;stroke-linecap:butt;stroke-linejoin:miter;stroke-miterlimit:10;stroke-dasharray:none;stroke-dashoffset:0" />
    <path
       d="m 86.436889,14.7834 v 7.465061 H 27.830431 c 0.49406,-1.225868 0.76682,-2.570725 0.76682,-3.981381 0,-1.222138 -0.20472,-2.394901 -0.58074,-3.48368 z"
       fill="#f4f4f4"
       stroke="#c2c2c2"
       stroke-width="2.65261"
       id="path14"
       style="mix-blend-mode:normal;fill-rule:nonzero;stroke-linecap:butt;stroke-linejoin:miter;stroke-miterlimit:10;stroke-dasharray:none;stroke-dashoffset:0" />
    <path
       d="M 1.3050863,22.248461 V 14.7834 h 7.7946684 c -0.3760099,1.088779 -0.5807499,2.261542 -0.5807499,3.48368 0,1.410656 0.27278,2.755513 0.7668399,3.981381 z"
       fill="#f4f4f4"
       stroke="#c2c2c2"
       stroke-width="2.65261"
       id="path16"
       style="mix-blend-mode:normal;fill-rule:nonzero;stroke-linecap:butt;stroke-linejoin:miter;stroke-miterlimit:10;stroke-dasharray:none;stroke-dashoffset:0" />
    <path
       d="M 1.3050837,93.251363 V 85.7863 H 86.436479 v 7.465063 z"
       fill="#f4f4f4"
       stroke="#c2c2c2"
       stroke-width="2.6526"
       id="path18"
       style="mix-blend-mode:normal;fill-rule:nonzero;stroke-linecap:butt;stroke-linejoin:miter;stroke-miterlimit:10;stroke-dasharray:none;stroke-dashoffset:0" />
    <path
       d="m 1.3050969,57.750532 v -7.46506 H 86.4369 v 7.46506 z"
       fill="#f4f4f4"
       stroke="#c2c2c2"
       stroke-width="2.65261"
       id="path20"
       style="mix-blend-mode:normal;fill-rule:nonzero;stroke-linecap:butt;stroke-linejoin:miter;stroke-miterlimit:10;stroke-dasharray:none;stroke-dashoffset:0" />
  </g>
  <path
     style="fill:#c9d1d9;stroke:#a2a5c0;stroke-width:2.48708;stroke-linecap:round;stroke-linejoin:round;stroke-dasharray:none"
     d="M 26.165859,1.2542901 H 81.763658 V 36.704498 c -11.03658,3.429838 -6.560646,9.383998 -3.617712,16.741334 0.932845,2.332113 1.380296,7.696788 3.617712,8.546276 v 29.268067 c -1.625582,-0.181477 -3.339691,-0.320103 -4.788434,0.585361 -2.138855,1.336785 -3.957353,3.268782 -6.321903,4.214602 -12.117717,4.847092 -23.368196,-7.802089 -35.824114,-5.034107 -7.410884,1.646863 -3.105595,5.796293 -13.580383,9.848849 H 1.2542996 V 62.694542 C 4.6983314,57.144102 12.236729,53.777288 13.170837,46.304424 14.378002,36.64711 0.9025763,21.246692 10.659556,27.924078 28.904581,40.41043 41.733132,14.167494 29.912172,5.3291297 28.198589,4.0479083 26.809618,3.7669424 26.165859,1.2542901 Z"
     id="path2" />
</svg>

<svg xmlns="http://www.w3.org/2000/svg" width="313.769" height="386" viewBox="0 0 83.018 102.129"><g stroke="#c2c2c2" stroke-width="2.653"><path fill="#e7e7e7" d="M1.305 106.688V1.348h85.132v105.34Zm17.253-78.382c5.545 0 10.04-4.313 10.04-10.039S24.102 8.228 18.557 8.228 8.52 12.541 8.52 18.268c0 5.725 4.495 10.038 10.04 10.038z" style="mix-blend-mode:normal;fill-rule:nonzero;stroke-linecap:butt;stroke-linejoin:miter;stroke-miterlimit:10;stroke-dasharray:none;stroke-dashoffset:0" transform="matrix(.9457 0 0 .9457 .02 -.02)"/><path fill="#f4f4f4" d="M86.437 14.783v7.465H27.83c.494-1.225.767-2.57.767-3.98 0-1.223-.204-2.396-.58-3.485zM1.305 22.248v-7.465H9.1a10.7 10.7 0 0 0-.581 3.484c0 1.41.273 2.756.767 3.981zM1.305 93.251v-7.465h85.131v7.465zM1.305 57.75v-7.465h85.132v7.466z" style="mix-blend-mode:normal;fill-rule:nonzero;stroke-linecap:butt;stroke-linejoin:miter;stroke-miterlimit:10;stroke-dasharray:none;stroke-dashoffset:0" transform="matrix(.9457 0 0 .9457 .02 -.02)"/></g><path d="M26.166 1.254h55.598v35.45c-11.037 3.43-6.561 9.384-3.618 16.742.933 2.332 1.38 7.697 3.618 8.546V91.26c-1.626-.181-3.34-.32-4.789.586-2.139 1.336-3.957 3.268-6.322 4.214-12.117 4.847-23.368-7.802-35.824-5.034-7.41 1.647-3.105 5.796-13.58 9.849H1.254v-38.18c3.444-5.55 10.983-8.918 11.917-16.39 1.207-9.658-12.268-25.058-2.511-18.38C28.905 40.41 41.733 14.166 29.912 5.328 28.2 4.048 26.81 3.767 26.166 1.254" style="fill:#c9d1d9;stroke:#a2a5c0;stroke-width:2.48708;stroke-linecap:round;stroke-linejoin:round;stroke-dasharray:none"/></svg>
